X:2768
T:Polonäs efter Andreas Grevelius (nr 78)
R:Slängpolska
Z:Nils L
S:efter Andreas Grevelius
S:http://www.smus.se/earkiv/fmk/browselarge.php?lang=sw&katalogid=M+93&bildnr=00031
O:Småland
M:3/4
L:1/8
K:C
Gc cB/c/ d2 | ec cB/c/ d2 | dg ga ^fg | a^f/a/ gd BG |
Gc cB/c/ d2 | e2 d/c/B/c/ d2 | dg ga ^fg | a^f/a/ g4 ::
eg ge/g/ f2 | de fg/f/ e2 | cd ef/e/ dB/d/ | d2 cA/B/ G2 |
Gg ge/g/ f2 | de fg/f/ e2 | cd ef/e/ dB/c/ | de c2"^?"z"^?"c :|
(:musicend:)
(:music:)
